!!!COM: Johannes Brahms
!!!CNT: Deutscher
!!!TXO: Deutsche
!!!OTL: Ach, wende diesen Blick
!!!OPS: Op. 57
!!!ONM: No. 4
!!!LYR: Eichendorff
!!!ONB: Original key: f minor
!!!ENC: Ayako Kataoka        
!!!EED: Leigh VanHandel
!!!YOR: C.F. Peters, Brahms Lieder fu2r eine Singstimme mit Klavierbegleitung, Band III, ausgabe fu2r tiefere Stimme
!!!ODT: 1871/
!!NB: Vocal melody and text only encoded.
**kern	**silbe
*clefG2	*
*k[b-]	*
*M3/4	*
*MM[adagio]	*
!! tempo indication: zeimlich langsam
=1-	=1-
{4a	{Ach,
8cc	wen-
8b-	-de
8a	die-
8g#	-sen
=2	=2
4a	Blick,
(8ee	wen-
8dd)	|
8b-	-de
8gn	dies
=3	=3
2f	An-
4e	-ge-
=4	=4
4d}	-sicht!}
4r	.
{4d	{Das
=5	=5
8d	Inn-
8d	-re
4.f	mir
8f	mit
=6	=6
8e	e-
8e	-wig
4.cc	neu-
8cc	-er
=7	=7
4.bn}	Glut,}
{8e	{mit
8g	e-
8b	-wig
=8	=8
4.ee	neu-
8dd	-em
8cc#	Harm
8dd	er-
=9	=9
2dd	-fu2l-
4b-	-le
=10	=10
4a}	nicht,}
8r	.
{8dd	{mit
8cc#	e-
8dd	-wig
=11	=11
4.dd	neu-
8ccn	-em
8b-	Harm
8f	er-
=12	=12
2f	-fu2l-
4e	-le
=13	=13
2d}	nicht!}
4r	.
=15	=15
{4d	{Wenn
4e-	ein-
4d}	-mal}
=16	=16
4r	.
{(8c	{die
8d)	|
(8c	ge-
8d)	|
=17	=17
2e-	-qua2l-
4d	-te
=18	=18
(4.g	See-
8f)	|
(8e-	-le
8d)	|
=19	=19
(4d	ruht,
4c)}	|}
4r	.
=20	=20
{4f	{und
4g	mit
4f	so
=21	=21
8.f	fie-
16f	-be-
(8en	-ri
8f)	|
(8e	-scher
8f)	|
=22	=22
(4g	Wil-
4b-)	|
4a	-de
=23	=23
8a	nicht
16r	.
16a	in
(8g#	mei-
8a)	|
(8g#	-nen
8a)	|
=24	=24
4cc	A-
8bn}	-dern,}
{8cc	{in
8b	mei-
8cc	-nen
=25	=25
2ee	A-
4bn	-dern
=26	=26
4.dd	rollt
8cc#	das
8g#	hei-
8a	-sse
=27	=27
(2b-	Blut,
4a)}	|}
=29	=29
4r	.
4r	.
{4b-	{ein
=30	=30
8.a	Strahl,
16a	ein
8ee	flu2ch-
8dd	-ti-
8b-	-ger,
8g	von
=31	=31
2f	dei-
4e	-nem
=32	=32
4d}	Licht,}
4r	.
{4d	{er
=33	=33
8d	we-
8d	-cket
4.f	auf
8f	des
=34	=34
8e	Wehs
8e	ge-
4.cc	-sam-
8cc	-te
=35	=35
4.bn}	Wut,}
{8e	{das
8g	schlan-
8b-	-gen-
=36	=36
4.ee	-gleich
8dd	mich
8cc#	in
8dd	das
=37	=37
2dd	Her-
4b-	-ze
=38	=38
4a}	sticht,}
8r	.
{8dd	{das
8cc#	schlan-
8dd	-ten-
=39	=39
4.dd	-gleich
8ccn	mich
8b-	in
8f	das
=40	=40
2f	Her-
4e	-ze
=41	=41
2d}	sticht.}
4r	.
*-	*-
